public/icons/11d.svg

<svg width="240" height="240" viewBox="0 0 240 240" fill="none" xmlns="http://www.w3.org/2000/svg">
<path fill-rule="evenodd" clip-rule="evenodd" d="M195 96.2307C195 96.8674 194.99 97.5017 194.969 98.1333C203.917 103.005 210 112.58 210 123.596C210 137.479 200.336 149.074 187.454 151.849L196.385 135.194C197.867 132.727 196.09 129.586 193.211 129.586H192.603H183.598C182.898 129.586 182.415 128.887 182.662 128.233L189.85 109.183L189.994 108.813C191.017 106.19 189.082 103.36 186.267 103.36H185.636H155.271H154.855C153.059 103.36 151.483 104.556 151.001 106.286L150.925 106.56L138.554 150.962L138.131 152.481L69 152.481C47.4609 152.481 30 134.784 30 112.954C30 91.1235 47.4609 73.4266 69 73.4266C75.4999 73.4266 81.6283 75.0382 87.0176 77.8886C94.5218 55.8284 115.185 39.9807 139.5 39.9807C170.152 39.9807 195 65.1647 195 96.2307Z" fill="white"/>
<path fill-rule="evenodd" clip-rule="evenodd" d="M116.834 163.499C114.208 162.646 111.387 164.083 110.534 166.71L97.6142 206.473C96.7609 209.099 98.1981 211.92 100.824 212.773C103.451 213.626 106.271 212.189 107.125 209.563L120.045 169.8C120.898 167.174 119.461 164.353 116.834 163.499ZM96.7022 163.499C94.0759 162.646 91.2552 164.083 90.4018 166.71L73.3652 219.143C72.5119 221.769 73.9492 224.59 76.5754 225.443C79.2017 226.297 82.0225 224.859 82.8758 222.233L99.9124 169.8C100.766 167.174 99.3285 164.353 96.7022 163.499ZM70.2697 166.71C71.123 164.083 73.9438 162.646 76.5701 163.499C79.1963 164.353 80.6336 167.174 79.7803 169.8L70.9773 196.892C70.124 199.519 67.3032 200.956 64.677 200.103C62.0507 199.249 60.6134 196.429 61.4668 193.802L70.2697 166.71ZM136.965 163.499C134.339 162.646 131.518 164.083 130.665 166.71L121.862 193.802C121.009 196.429 122.446 199.249 125.072 200.103C127.699 200.956 130.519 199.519 131.373 196.892L140.176 169.8C141.029 167.174 139.592 164.353 136.965 163.499Z" fill="#B4F5F2"/>
<path fill-rule="evenodd" clip-rule="evenodd" d="M157.73 109.283C156.825 109.283 156.033 109.891 155.798 110.764L145.288 149.911C144.947 151.182 145.904 152.43 147.219 152.43H161.329C162.522 152.43 163.45 153.468 163.316 154.654L159.541 188.058C159.291 190.271 162.3 191.175 163.311 189.191L189.572 137.625C190.249 136.295 189.283 134.718 187.79 134.718H176.256C174.837 134.718 173.87 133.282 174.402 131.968L182.464 112.033C182.996 110.718 182.028 109.283 180.61 109.283H157.73Z" fill="#FFF686"/>
</svg>

<svg xmlns="http://www.w3.org/2000/svg" width="240" height="240" fill="none" fill-rule="evenodd" xmlns:v="https://vecta.io/nano"><path d="M195 96.231l-.031 1.903C203.917 103.005 210 112.58 210 123.596c0 13.883-9.664 25.478-22.546 28.253l8.931-16.655c1.482-2.467-.295-5.608-3.174-5.608h-.608-9.005a1 1 0 0 1-.936-1.353l7.188-19.05.144-.37c1.023-2.623-.912-5.453-3.727-5.453h-.631-30.365-.416a4 4 0 0 0-3.854 2.926l-.076.274-12.371 44.402-.423 1.519H69c-21.539 0-39-17.697-39-39.527s17.461-39.527 39-39.527c6.5 0 12.628 1.612 18.018 4.462 7.504-22.06 28.167-37.908 52.482-37.908 30.652 0 55.5 25.184 55.5 56.25z" fill="#fff"/><path d="M116.834 163.499a5 5 0 0 0-6.3 3.211l-12.92 39.763a5 5 0 1 0 9.511 3.09l12.92-39.763c.853-2.626-.584-5.447-3.211-6.301zm-20.132 0a5 5 0 0 0-6.3 3.211l-17.037 52.433a5 5 0 1 0 9.511 3.09L99.912 169.8a5 5 0 0 0-3.21-6.301zM70.27 166.71a5 5 0 0 1 6.3-3.211c2.626.854 4.064 3.675 3.21 6.301l-8.803 27.092a5 5 0 0 1-9.51-3.09l8.803-27.092zm66.695-3.211a5 5 0 0 0-6.3 3.211l-8.803 27.092a5 5 0 1 0 9.511 3.09l8.803-27.092c.853-2.626-.584-5.447-3.211-6.301z" fill="#b4f5f2"/><path d="M157.73 109.283a2 2 0 0 0-1.932 1.481l-10.51 39.147a2 2 0 0 0 1.931 2.519h14.11a2 2 0 0 1 1.987 2.224l-3.775 33.404c-.25 2.213 2.759 3.117 3.77 1.133l26.261-51.566a2 2 0 0 0-1.782-2.907h-11.534a2 2 0 0 1-1.854-2.75l8.062-19.935a2 2 0 0 0-1.854-2.75h-22.88z" fill="#fff686"/></svg>
